icons/1_Primary/VicRoads.svg

<svg width="1024" height="1024" viewBox="0 0 1024 1024" fill="none" xmlns="http://www.w3.org/2000/svg">
<g clip-path="url(#clip0_2_3846)">
<path d="M512 1024C794.77 1024 1024 794.77 1024 512C1024 229.23 794.77 0 512 0C229.23 0 0 229.23 0 512C0 794.77 229.23 1024 512 1024Z" fill="#98DC9A"/>
<path d="M659.72 403.55H728.41C745.31 403.64 762.41 409.55 774.71 421.34C784.54 430.62 791.22 442.91 794.64 455.93C799.06 472.27 797.23 489.34 797.64 506.03C797.32 521.81 798.3 537.64 797.09 553.37C793.76 532.91 783.52 512.79 766.09 500.84C751.37 490.25 732.93 486.46 715.09 486.17C669.21 486.11 623.32 486.26 577.44 486.1C604.58 458.3 632.33 431.09 659.72 403.55ZM715.16 660.23C742.71 687.58 769.97 715.23 797.59 742.48C797.68 705.37 797.59 668.27 797.59 631.16C797.204 608.196 793.843 585.379 787.59 563.28C782.71 544.56 775.76 524.86 760.47 512.06C747.86 501.5 731.07 498.29 715.04 497.77C715.113 551.923 715.153 606.073 715.16 660.22V660.23ZM590 552.94L588.54 551.5C532.7 495.633 476.853 439.77 421 383.91C405 368.223 389.103 352.467 373.31 336.64L343.15 306.46H226.3L311.52 391.69V392C327.31 407.85 342.98 423.85 359.14 439.33C409.666 489.89 460.216 540.447 510.79 591C567.15 646.59 622.79 702.86 678.89 758.75C688.38 767.94 697.07 778.55 709.23 784.32C721 790.54 734.95 790.32 747.76 788.32C766.56 784.03 783.42 773.47 797.55 760.57C728.416 691.317 659.233 622.107 590 552.94Z" fill="white"/>
</g>
<defs>
<clipPath id="clip0_2_3846">
<rect width="1024" height="1024" fill="white"/>
</clipPath>
</defs>
</svg>

<svg xmlns="http://www.w3.org/2000/svg" width="1024" height="1024" fill="none">
   <g clip-path="url(#a)">
      <path fill="#98DC9A" d="M512 1024c282.77 0 512-229.23 512-512S794.77 0 512 0 0 229.23 0 512s229.23 512 512 512Z"/>
      <path fill="#fff" d="M659.72 403.55h68.69c16.9.09 34 6 46.3 17.79 9.83 9.28 16.51 21.57 19.93 34.59 4.42 16.34 2.59 33.41 3 50.1-.32 15.78.66 31.61-.55 47.34-3.33-20.46-13.57-40.58-31-52.53-14.72-10.59-33.16-14.38-51-14.67-45.88-.06-91.77.09-137.65-.07 27.14-27.8 54.89-55.01 82.28-82.55Zm55.44 256.68c27.55 27.35 54.81 55 82.43 82.25.09-37.11 0-74.21 0-111.32a265.719 265.719 0 0 0-10-67.88c-4.88-18.72-11.83-38.42-27.12-51.22-12.61-10.56-29.4-13.77-45.43-14.29.073 54.153.113 108.303.12 162.45v.01ZM590 552.94l-1.46-1.44C532.7 495.633 476.853 439.77 421 383.91a6130.595 6130.595 0 0 1-47.69-47.27l-30.16-30.18H226.3l85.22 85.23v.31c15.79 15.85 31.46 31.85 47.62 47.33A394259.178 394259.178 0 0 0 510.79 591c56.36 55.59 112 111.86 168.1 167.75 9.49 9.19 18.18 19.8 30.34 25.57 11.77 6.22 25.72 6 38.53 4 18.8-4.29 35.66-14.85 49.79-27.75A219613.514 219613.514 0 0 0 590 552.94Z"/>
   </g>
   <defs>
      <clipPath id="a">
         <path fill="#fff" d="M0 0h1024v1024H0z"/>
      </clipPath>
   </defs>
</svg>
